frontend/public/images/quotes/saylor.svg

<svg xmlns="http://www.w3.org/2000/svg" width="667" height="800" fill="none"><path fill="gray" fill-opacity=".08" d="M332.385 799.829H184.303c-38.005 0-76.002.07-114.007-.024-21.788-.055-43.584-.329-65.371-.65-1.695-.023-4.512-.885-4.794-1.903-.447-1.628.306-4.103 1.428-5.543a2196.072 2196.072 0 0 1 27.24-34.25c8.615-10.626 17.41-21.095 26.072-31.682.683-.838 1.255-2.012 1.334-3.069.95-13.469 5.837-25.293 15.77-34.47 5.476-5.058 12.906-6.89 20.227-7.47 11.556-.916 23.168-1.174 34.756-1.66 1.271-.055 2.935-.156 3.759.54 3.091 2.608 5.837.995 8.677-.234 10.859-4.714 21.662-9.561 32.584-14.126 10.639-4.456 22.046-5.168 33.344-5.889 8.819-.571 17.332-2.051 25.46-5.473 1.357-.572 2.77-1.559 3.609-2.741 7.132-9.952 13.887-20.179 21.27-29.935 3.978-5.254 8.607-10.148 13.597-14.455 3.554-3.07 3.844-5.654 2.354-9.154-2.44-5.716-4.967-11.401-7.744-16.952-3.248-6.484-3.986-13.218-3.24-20.32.439-4.236.792-8.582.282-12.779-.259-2.115-2.377-4.096-3.907-5.928-1.052-1.253-3.131-1.879-3.758-3.234-3.963-8.605-8.246-17.148-11.196-26.106-1.562-4.738-.95-10.297-.777-15.473.329-10.031 1.012-20.046 1.6-30.069.102-1.808.055-3.758.707-5.387 1.263-3.163 1.553-5.896-.981-8.637-.557-.603-.322-2.239-.039-3.281 3.303-11.949 7.037-23.788 9.893-35.839 1.389-5.873 1.656-12.137 1.585-18.213-.118-10.149 4.621-18.652 7.987-27.72 1.436-3.876 2.165-7.901 4.998-11.15 2.205-2.529 5.343-5.004 6.002-7.956 1.742-7.775 8.348-10.728 13.526-14.901 4.166-3.359 9.572-5.145 14.028-8.214 3.696-2.545 6.748-6.006 10.216-8.919 1.153-.963 2.699-1.464 4.056-2.185 3.648-1.918 7.406-3.656 10.906-5.817 4.958-3.054 9.626-6.578 14.608-9.577 1.813-1.088 4.151-1.464 6.301-1.777 4.213-.627 8.465-1.026 12.71-1.457 5.547-.556 11.102-1.026 16.657-1.566 3.993-.384 8.073-1.558 11.949-1.065 6.598.838 13.236 2.208 19.551 4.268 6.363 2.075 12.397 5.199 18.524 7.979 2.582 1.166 5.053 2.607 7.548 3.954.447.243.769.893 1.2.948 8.121.994 11.808 8.167 17.544 12.465.91.682 1.647 1.668 2.636 2.162 5.547 2.764 9.234 7.313 12.608 12.325 2.73 4.056 5.9 7.83 8.984 11.635 1.467 1.801 3.726 3.133 4.684 5.129 1.42 2.952 2.024 6.296 2.902 9.491.267.971.071 2.09.448 2.991 2.299 5.497 4.935 10.853 7.022 16.428 5.139 13.734 6.661 28.087 6.174 42.621-.164 5.011-2.275 9.983-2.244 14.963.04 5.623-3.036 9.914-4.44 14.87-2.448 8.645-4.3 17.454-6.465 26.185-.526 2.13-.753 4.635-2.048 6.217-3.586 4.393-4.386 9.819-4.637 14.815-.235 4.714-2.605 8.269-3.648 12.419-2.111 8.379-3.523 16.937-5.218 25.417-.18.893-.204 1.825-.463 2.694-2.628 8.848-6.002 17.556-7.712 26.576-1.498 7.862-3.797 15.277-7.155 22.434-2.739 5.834-5.751 11.542-8.482 17.384-1.2 2.56-3.06 5.473-2.691 7.932.455 3.022 2.425 6.24 4.629 8.511 12.452 12.795 24.738 25.66 34.624 40.679 3.35 5.097 8.913 7.76 15.213 8.269 9.729.791 19.575.861 29.147 2.537 10.27 1.801 19.269 7.055 27.233 13.875 1.059.908 2.259 1.966 3.546 2.24 7.979 1.73 14.735 5.716 21.027 10.727 1.302 1.034 2.887 1.778 4.441 2.435 6.057 2.569 10.733 6.813 14.554 12.012 9.634 13.116 18.586 26.796 29.013 39.246 6.787 8.096 15.708 14.408 23.616 21.58 2.699 2.443 4.841 5.842 7.94 7.408 3.154 1.589 5.594 3.523 7.611 6.217.69.924 1.341 1.966 1.639 3.054.487 1.809-.062 2.983-2.314 2.968-4.441-.047-8.882.101-13.322.117-41.638.165-83.276.36-124.913.454-55.109.126-110.218.173-165.319.243-9.533.016-19.066 0-28.598 0v-.164h.015Z"/></svg>

<svg width="667" height="800" viewBox="0 0 667 800" fill="none" xmlns="http://www.w3.org/2000/svg">
<path d="M332.385 799.829C283.027 799.829 233.661 799.829 184.303 799.829C146.298 799.829 108.301 799.899 70.296 799.805C48.5082 799.75 26.7125 799.476 4.92472 799.155C3.23003 799.132 0.41338 798.27 0.130931 797.252C-0.31628 795.624 0.436918 793.149 1.55887 791.709C10.5188 780.198 19.6121 768.789 28.7995 757.459C37.4142 746.833 46.2094 736.364 54.8711 725.777C55.5537 724.939 56.1265 723.765 56.2049 722.708C57.1543 709.239 62.0422 697.415 71.975 688.238C77.4514 683.18 84.8814 681.348 92.2015 680.768C103.758 679.852 115.37 679.594 126.958 679.108C128.229 679.053 129.893 678.952 130.717 679.648C133.808 682.256 136.554 680.643 139.394 679.414C150.253 674.7 161.056 669.853 171.978 665.288C182.617 660.832 194.024 660.12 205.322 659.399C214.141 658.828 222.654 657.348 230.782 653.926C232.139 653.354 233.552 652.367 234.391 651.185C241.523 641.233 248.278 631.006 255.661 621.25C259.639 615.996 264.268 611.102 269.258 606.795C272.812 603.725 273.102 601.141 271.612 597.641C269.172 591.925 266.645 586.24 263.868 580.689C260.62 574.205 259.882 567.471 260.628 560.369C261.067 556.133 261.42 551.787 260.91 547.59C260.651 545.475 258.533 543.494 257.003 541.662C255.951 540.409 253.872 539.783 253.245 538.428C249.282 529.823 244.999 521.28 242.049 512.322C240.487 507.584 241.099 502.025 241.272 496.849C241.601 486.818 242.284 476.803 242.872 466.78C242.974 464.972 242.927 463.022 243.579 461.393C244.842 458.23 245.132 455.497 242.598 452.756C242.041 452.153 242.276 450.517 242.559 449.475C245.862 437.526 249.596 425.687 252.452 413.636C253.841 407.763 254.108 401.499 254.037 395.423C253.919 385.274 258.658 376.771 262.024 367.703C263.46 363.827 264.189 359.802 267.022 356.553C269.227 354.024 272.365 351.549 273.024 348.597C274.766 340.822 281.372 337.869 286.55 333.696C290.716 330.337 296.122 328.551 300.578 325.482C304.274 322.937 307.326 319.476 310.794 316.563C311.947 315.6 313.493 315.099 314.85 314.378C318.498 312.46 322.256 310.722 325.756 308.561C330.714 305.507 335.382 301.983 340.364 298.984C342.177 297.896 344.515 297.52 346.665 297.207C350.878 296.58 355.13 296.181 359.375 295.75C364.922 295.194 370.477 294.724 376.032 294.184C380.025 293.8 384.105 292.626 387.981 293.119C394.579 293.957 401.217 295.327 407.532 297.387C413.895 299.462 419.929 302.586 426.056 305.366C428.638 306.532 431.109 307.973 433.604 309.32C434.051 309.563 434.373 310.213 434.804 310.268C442.925 311.262 446.612 318.435 452.348 322.733C453.258 323.415 453.995 324.401 454.984 324.895C460.531 327.659 464.218 332.208 467.592 337.22C470.322 341.276 473.492 345.05 476.576 348.855C478.043 350.656 480.302 351.988 481.26 353.984C482.68 356.936 483.284 360.28 484.162 363.475C484.429 364.446 484.233 365.565 484.61 366.466C486.909 371.963 489.545 377.319 491.632 382.894C496.771 396.628 498.293 410.981 497.806 425.515C497.642 430.526 495.531 435.498 495.562 440.478C495.602 446.101 492.526 450.392 491.122 455.348C488.674 463.993 486.822 472.802 484.657 481.533C484.131 483.663 483.904 486.168 482.609 487.75C479.023 492.143 478.223 497.569 477.972 502.565C477.737 507.279 475.367 510.834 474.324 514.984C472.213 523.363 470.801 531.921 469.106 540.401C468.926 541.294 468.902 542.226 468.643 543.095C466.015 551.943 462.641 560.651 460.931 569.671C459.433 577.533 457.134 584.948 453.776 592.105C451.037 597.939 448.025 603.647 445.294 609.489C444.094 612.049 442.234 614.962 442.603 617.421C443.058 620.443 445.028 623.661 447.232 625.932C459.684 638.727 471.97 651.592 481.856 666.611C485.206 671.708 490.769 674.371 497.069 674.88C506.798 675.671 516.644 675.741 526.216 677.417C536.486 679.218 545.485 684.472 553.449 691.292C554.508 692.2 555.708 693.258 556.995 693.532C564.974 695.262 571.73 699.248 578.022 704.259C579.324 705.293 580.909 706.037 582.463 706.694C588.52 709.263 593.196 713.507 597.017 718.706C606.651 731.822 615.603 745.502 626.03 757.952C632.817 766.048 641.738 772.36 649.646 779.532C652.345 781.975 654.487 785.374 657.586 786.94C660.74 788.529 663.18 790.463 665.197 793.157C665.887 794.081 666.538 795.123 666.836 796.211C667.323 798.02 666.774 799.194 664.522 799.179C660.081 799.132 655.64 799.28 651.2 799.296C609.562 799.461 567.924 799.656 526.287 799.75C471.178 799.876 416.069 799.923 360.968 799.993C351.435 800.009 341.902 799.993 332.37 799.993C332.37 799.938 332.37 799.883 332.37 799.829H332.385Z" fill="#808080" fill-opacity="0.08"/>
</svg>
